!!!OTL: 201. Herzlieb im Grabe.
!!!ARE: Europa, Mitteleuropa, Deutschland, Kassel
!!!SCT: E0201
!!!TXL: @@DE
!!!YEM: Copyright 1995, estate of Helmut Schaffrath.
**kern	**text
*ICvox	*
*M4/4	*
*met(c)	*
*k[f#]	*
*G:	*
!LO:TX:a:t=Langſam.	!
!LO:TX:a:t=Umgegend von Kaſſel (Lewalter III, 14).	!
{4d	Nun_a-
=1	=1
4g	-de,
4g	mein
4a	herʒ-
4dd	-lieb
=2	=2
4.b/	Schä-
8a	-tʒe-
4g}	-lein,
{8gL	jetʒt
8bJ	.
=3	=3
4dd	muß
4dd	ich
4dd	ſchei-
8ccL	-den
8bJ	von
=4	=4
2a	dir
4r}	.
{4dd	bis
=5	=5
4b	auf
4b	den
4b	an-
8ddL	-dern
8eeJ	.
=6	=6
(4.dd	Som-
8cc)	.
4a}	-mer,
{4dd	dann
=7	=7
4dd	komm
4b	ich
8aL	wie-
8gJ	.
8aL	-der
8bJ	ʒu
=8	=8
2g	dir.
4r}	.
==	==
!!!AGN: erzaehlendes Volks - Lied, Tod, Toten - Sage, Grabesstimme
!!!ONB: ESAC (Essen Associative Code) Database: ERK1
!!!AMT: simple quadruple
!!!AIN: vox
!!!EED: Helmut Schaffrath
!!!EEV: 1.0
!!!GTL: Todtensagen (Todesahnung, Geisterliebe, Grabesstimmen)
!!!URL-scan: https://rosdok.uni-rostock.de/mcrviewer/recordIdentifier/rosdok_ppn745146120/iview2/phys_0670.iview2?x=-128.7727644188933&y=1500.4993288717233&scale=0.5870222003877484&rotation=0&layout=singlePageLayout
!!!ENC: Anna Maria Matuszewska
!!!EEV: 2024/06/12
*-	*-
